src/assets/images/toolbox/material.svg

<svg
  width="37"
  height="32"
  viewBox="0 0 37 32"
  fill="transparent"
  xmlns="http://www.w3.org/2000/svg">
  <path
    fill="#007FFF"
    d="M31.1856 21.85C31.342 21.7602 31.4719 21.6308 31.5625 21.4749C31.6531 21.3189 31.7011 21.1419 31.7016 20.9616L31.7201 15.0109C31.7207 14.8305 31.7686 14.6535 31.8592 14.4975C31.9498 14.3416 32.0798 14.2122 32.2361 14.1224L35.4603 12.2695C35.6166 12.1797 35.7937 12.1325 35.9739 12.1328C36.1541 12.1331 36.3311 12.1808 36.487 12.2711C36.643 12.3614 36.7725 12.4912 36.8625 12.6473C36.9526 12.8035 37 12.9806 37 13.1609V23.9795C37 24.1604 36.9523 24.3381 36.8617 24.4946C36.7711 24.6512 36.6408 24.781 36.484 24.8711L24.3159 31.8634C24.1605 31.9527 23.9844 31.9998 23.8052 32C23.6259 32.0002 23.4497 31.9534 23.2941 31.8645L13.7449 26.4001C13.5876 26.3102 13.4568 26.1803 13.3658 26.0236C13.2748 25.8669 13.2269 25.6889 13.2268 25.5076V20.0525C13.2268 20.0464 13.234 20.0424 13.2402 20.0453C13.2453 20.0484 13.2525 20.0453 13.2525 20.038V20.032C13.2525 20.0279 13.2545 20.0237 13.2587 20.0217L21.1235 15.5014C21.1308 15.4972 21.1276 15.4859 21.1193 15.4859C21.1172 15.4859 21.1151 15.4851 21.1135 15.4835C21.112 15.482 21.1111 15.4799 21.1111 15.4777L21.1266 10.1296C21.1273 9.9487 21.0803 9.77085 20.9904 9.61394C20.9005 9.45704 20.7708 9.32664 20.6145 9.2359C20.4581 9.14516 20.2806 9.09729 20.0998 9.09712C19.919 9.09694 19.7414 9.14448 19.5848 9.23492L13.7397 12.6048C13.5837 12.6947 13.4069 12.742 13.2269 12.742C13.0468 12.742 12.87 12.6947 12.714 12.6048L6.85035 9.22697C6.69414 9.13696 6.51701 9.08964 6.33674 9.08975C6.15647 9.08987 5.9794 9.13742 5.82331 9.22763C5.66721 9.31785 5.53758 9.44755 5.44742 9.60373C5.35726 9.7599 5.30975 9.93706 5.30965 10.1174V19.7832C5.30978 19.9634 5.2626 20.1404 5.17283 20.2966C5.08306 20.4528 4.95386 20.5826 4.79815 20.6731C4.64245 20.7636 4.46571 20.8116 4.28564 20.8122C4.10557 20.8129 3.92848 20.7662 3.77212 20.6769L0.518001 18.8153C0.360427 18.7253 0.229493 18.5951 0.13851 18.438C0.0475266 18.2809 -0.000262336 18.1025 1.08313e-06 17.921L0.0289073 1.02606C0.0293684 0.846009 0.0770779 0.669235 0.167263 0.513422C0.257449 0.35761 0.386948 0.228221 0.542807 0.138199C0.698666 0.0481768 0.87542 0.000678138 1.05539 0.000454322C1.23536 0.000230506 1.41223 0.0472893 1.56831 0.136923L12.715 6.54177C12.8708 6.63127 13.0472 6.67836 13.2269 6.67836C13.4065 6.67836 13.5829 6.63127 13.7387 6.54177L24.8821 0.136634C25.0384 0.0467887 25.2156 -0.000332099 25.3959 1.76183e-06C25.5762 0.000335622 25.7532 0.0481124 25.9092 0.138536C26.0652 0.22896 26.1947 0.358849 26.2847 0.515164C26.3746 0.67148 26.4219 0.848721 26.4218 1.0291V17.9279C26.4219 18.1087 26.3743 18.2863 26.2839 18.4428C26.1935 18.5993 26.0635 18.7293 25.9069 18.8195L20.0711 22.182C19.9143 22.2724 19.7842 22.4026 19.6938 22.5594C19.6035 22.7163 19.5561 22.8942 19.5565 23.0752C19.5569 23.2562 19.6051 23.4339 19.6961 23.5903C19.7872 23.7468 19.9179 23.8764 20.0751 23.966L23.2942 25.7996C23.4498 25.8881 23.6258 25.9345 23.8048 25.9342C23.9838 25.9338 24.1596 25.8866 24.3148 25.7974L31.1856 21.85ZM31.8609 6.691C31.861 6.87286 31.9094 7.05143 32.001 7.2085C32.0926 7.36557 32.2242 7.49552 32.3824 7.5851C32.5406 7.67468 32.7197 7.72068 32.9015 7.71841C33.0832 7.71614 33.2612 7.66568 33.4171 7.57218L36.5005 5.72132C36.6527 5.63008 36.7787 5.50096 36.8662 5.34654C36.9538 5.19212 36.9999 5.01766 37 4.84014V1.06828C36.9997 0.886509 36.9512 0.708066 36.8595 0.551136C36.7678 0.394206 36.6362 0.264399 36.478 0.174941C36.3199 0.0854835 36.1408 0.0395722 35.9592 0.0418857C35.7775 0.0441992 35.5997 0.0946547 35.4438 0.188111L32.3605 2.03897C32.2083 2.13021 32.0822 2.25934 31.9947 2.41379C31.9071 2.56824 31.861 2.74274 31.8609 2.9203V6.69201V6.691Z"
  />
</svg>

<svg xmlns="http://www.w3.org/2000/svg" width="37" height="32" fill="transparent" xmlns:v="https://vecta.io/nano">
  <path fill="#007fff"
    d="M31.186 21.85a1.03 1.03 0 0 0 .516-.888l.018-5.951a1.03 1.03 0 0 1 .516-.888l3.224-1.853a1.03 1.03 0 0 1 .514-.137c.18 0 .357.048.513.138a1.03 1.03 0 0 1 .513.89V23.98a1.03 1.03 0 0 1-.516.892l-12.168 6.992c-.155.089-.331.136-.511.137a1.03 1.03 0 0 1-.511-.136L13.745 26.4a1.03 1.03 0 0 1-.518-.892v-5.455c.018-.004.026-.007.026-.014v-.006l7.871-4.531c-.006-.015-.008-.016-.01-.018l.013-5.354a1.03 1.03 0 0 0-.512-.894c-.156-.091-.334-.139-.515-.139a1.03 1.03 0 0 0-.515.138l-5.845 3.37c-.156.09-.333.137-.513.137s-.357-.047-.513-.137L6.85 9.227c-.156-.09-.333-.137-.514-.137s-.357.048-.513.138a1.03 1.03 0 0 0-.514.89v9.666a1.03 1.03 0 0 1-.512.89c-.156.09-.332.138-.513.139s-.357-.046-.514-.135L.518 18.815c-.158-.09-.289-.22-.379-.377A1.03 1.03 0 0 1 0 17.921L.029 1.026A1.03 1.03 0 0 1 .543.138C.699.048.875.001 1.055 0s.357.047.513.136l11.147 6.405c.156.09.332.137.512.137s.356-.047.512-.137L24.882.137c.156-.09.333-.137.514-.137s.357.048.513.139a1.03 1.03 0 0 1 .513.891v16.899a1.03 1.03 0 0 1-.515.892l-5.836 3.362a1.03 1.03 0 0 0-.515.893 1.03 1.03 0 0 0 .14.515c.091.157.222.286.379.376l3.219 1.834a1.03 1.03 0 0 0 1.021-.002l6.871-3.947zm.675-15.159a1.03 1.03 0 0 0 .521.894c.158.09.337.136.519.133a1.03 1.03 0 0 0 .516-.146l3.083-1.851a1.03 1.03 0 0 0 .366-.375c.088-.154.134-.329.134-.506V1.068a1.03 1.03 0 0 0-.522-.893c-.158-.089-.337-.135-.519-.133a1.03 1.03 0 0 0-.515.146l-3.083 1.851a1.03 1.03 0 0 0-.5.881v3.772-.001z" />
</svg>
